X:16883
T:The Irish Washerwoman
M:6/8
L:1/8
S:Armitt MS
N:It can be difficult to tell the difference between notes and  bar lines
N:drawn with a blodgy pen.  Those two marks on the paper which have been
N:interpreted as the last two bar lines in the A music look like a
N:crochet 'D' and crochet 'C'.  Also the photocopy is a  little patchy,
N:particularly round the last two bars
K:G major
c2|BGG DGG|BGB dcB EAA|cAc edc|BGG DGG|BGB dcB|cB cd Ad|BGGG2:||:ga|bgg
 dgg|bgb bag|afd Adg|fdf agf|egg dgg|Bgg Bgg| dcBcd Adc|BGG G2:||
